X: 100146
M: 6/8
L: 1/8
K: G
|:\
v(.G2.G) (B/c/)dB | GBG (B2{cB}A) | GBG GdB | A=FA (c2A) |\
|:\
vg3 def | gfe dBG | g3 de=f | A=FA (c2A) |\
g3 def | gfe dcB | aca BgB | A=FA (c2A) :|
|:\
vBGG ADD | BGG ABc | BGG ADD | A=FA ABc |\
|:\
vgdB gdB | GAB (d2B) | gdB gdB | A=FA (c2A) |\
gdB gdB | GAB gdB | cac BgB | A=FA (c2A) :|


